src/IMAGE/logo.svg

<svg width="131" height="14" viewBox="0 0 131 14" fill="none" xmlns="http://www.w3.org/2000/svg">
<g clip-path="url(#clip0_1275_1308)">
<path d="M4.4989 5.90985L0.365494 11.3033C-0.105503 11.9099 -0.137986 12.7705 0.349253 13.3607C1.08823 14.2541 2.4525 14.1803 3.10215 13.3279L5.40842 10.3279C5.78197 9.84428 5.78197 9.18034 5.40842 8.69674L4.62071 7.67215C4.21468 7.14756 4.19032 6.45903 4.4989 5.91805V5.90985Z" fill="#F8F7F5"/>
<path d="M19.7089 5.90985L15.5755 11.3033C15.1045 11.9099 15.072 12.7705 15.5592 13.3607C16.2982 14.2541 17.6625 14.1803 18.3121 13.3279L20.6184 10.3279C20.9919 9.84428 20.9919 9.18034 20.6184 8.69674L19.8307 7.67215C19.4246 7.14756 19.4003 6.45903 19.7089 5.91805V5.90985Z" fill="#F8F7F5"/>
<path d="M20.2691 2.77869L12.5707 13.2951C12.2215 13.7705 11.6693 14.0164 11.1252 14C10.5892 14.0082 10.0533 13.7623 9.71221 13.2951L6.84562 9.37705L5.43263 7.45082C5.02659 6.89344 5.01035 6.17213 5.31082 5.60656C5.42451 5.38525 5.58692 5.18852 5.79806 5.03279C6.55328 4.46721 7.6252 4.63115 8.18553 5.39344L11.1252 9.40164L17.4918 0.704918C17.8247 0.245902 18.3526 0 18.8804 0C19.2377 0 19.595 0.106557 19.9036 0.336066C20.667 0.909836 20.8375 2.0082 20.2691 2.77869Z" fill="#F8F7F5"/>
<path d="M27.3097 13.6639C26.5545 14.2213 25.4744 14.0656 24.9141 13.2951L22.0475 9.37705L20.6345 7.45082C20.2285 6.89345 20.2123 6.17213 20.5127 5.60656C20.6264 5.38525 20.7888 5.18853 20.9918 5.03279C21.7552 4.46722 22.8271 4.63115 23.3874 5.39345L27.667 11.2459C28.2273 12.0082 28.0649 13.0984 27.3097 13.6639Z" fill="#F8F7F5"/>
</g>
<path d="M37.6387 6.70703C37.5605 6.01367 36.9258 5.61328 36.0762 5.61328C35.1387 5.61328 34.5234 6.10156 34.5234 6.77539C34.5234 7.51758 35.3535 7.79102 35.8906 7.92773L36.5938 8.12305C37.3555 8.31836 38.5957 8.75781 38.5957 10.0762C38.5957 11.2285 37.668 12.127 36.0273 12.127C34.5039 12.127 33.5566 11.3359 33.4785 10.1641H34.377C34.4551 10.9551 35.1875 11.3262 36.0273 11.3262C37.0039 11.3262 37.7363 10.8281 37.7363 10.0566C37.7363 9.37305 37.082 9.10938 36.3398 8.89453L35.4707 8.66016C34.3574 8.33789 33.6738 7.77148 33.6738 6.81445C33.6738 5.62305 34.7383 4.83203 36.1055 4.83203C37.4727 4.83203 38.459 5.63281 38.498 6.70703H37.6387ZM42.3555 12V4.92969H46.6426V5.71094H43.2344V8.07422H46.418V8.8457H43.2344V11.2188H46.6914V12H42.3555ZM56.5059 8.46484C56.5059 10.7012 55.1875 12.0977 53.3809 12.0977C51.5645 12.0977 50.2559 10.7012 50.2559 8.46484C50.2559 6.22852 51.5645 4.83203 53.3809 4.83203C55.1875 4.83203 56.5059 6.22852 56.5059 8.46484ZM55.6562 8.46484C55.6562 6.63867 54.6602 5.65234 53.3809 5.65234C52.1016 5.65234 51.1055 6.63867 51.1055 8.46484C51.1055 10.291 52.1016 11.2773 53.3809 11.2773C54.6602 11.2773 55.6562 10.291 55.6562 8.46484ZM64.1523 6.70703C64.0742 6.01367 63.4395 5.61328 62.5898 5.61328C61.6523 5.61328 61.0371 6.10156 61.0371 6.77539C61.0371 7.51758 61.8672 7.79102 62.4043 7.92773L63.1074 8.12305C63.8691 8.31836 65.1094 8.75781 65.1094 10.0762C65.1094 11.2285 64.1816 12.127 62.541 12.127C61.0176 12.127 60.0703 11.3359 59.9922 10.1641H60.8906C60.9688 10.9551 61.7012 11.3262 62.541 11.3262C63.5176 11.3262 64.25 10.8281 64.25 10.0566C64.25 9.37305 63.5957 9.10938 62.8535 8.89453L61.9844 8.66016C60.8711 8.33789 60.1875 7.77148 60.1875 6.81445C60.1875 5.62305 61.252 4.83203 62.6191 4.83203C63.9863 4.83203 64.9727 5.63281 65.0117 6.70703H64.1523ZM69.1719 12H68.2539L70.8418 4.92969H71.7695L74.3574 12H73.4297L72.7266 10.0078H69.8848L69.1719 12ZM70.1484 9.23633H72.4531L71.3301 6.07227H71.2715L70.1484 9.23633ZM83.4297 4.92969V12H82.5898L78.7617 6.49219H78.6934V12H77.8145V4.92969H78.6641L82.4922 10.4473H82.5605V4.92969H83.4297ZM92.3164 7.15625C92.1113 6.17969 91.2715 5.65234 90.3438 5.65234C89.0645 5.65234 88.0684 6.63867 88.0684 8.46484C88.0684 10.291 89.0645 11.2773 90.3438 11.2773C91.2715 11.2773 92.1016 10.75 92.3164 9.7832H93.1953C92.9414 11.2285 91.7793 12.0977 90.3438 12.0977C88.5273 12.0977 87.2188 10.7012 87.2188 8.46484C87.2188 6.22852 88.5273 4.83203 90.3438 4.83203C91.7695 4.83203 92.9316 5.69141 93.1953 7.15625H92.3164ZM96.9258 12V4.92969H97.8047V8.07422H101.545V4.92969H102.434V12H101.545V8.8457H97.8047V12H96.9258ZM106.486 12V4.92969H110.773V5.71094H107.365V8.07422H110.549V8.8457H107.365V11.2188H110.822V12H106.486ZM119.484 7.15625C119.279 6.17969 118.439 5.65234 117.512 5.65234C116.232 5.65234 115.236 6.63867 115.236 8.46484C115.236 10.291 116.232 11.2773 117.512 11.2773C118.439 11.2773 119.27 10.75 119.484 9.7832H120.363C120.109 11.2285 118.947 12.0977 117.512 12.0977C115.695 12.0977 114.387 10.7012 114.387 8.46484C114.387 6.22852 115.695 4.83203 117.512 4.83203C118.938 4.83203 120.1 5.69141 120.363 7.15625H119.484ZM124.094 12V4.92969H124.973V8.42578H125.061L128.205 4.92969H129.357L126.398 8.12305L129.357 12H128.283L125.852 8.72852L124.973 9.72461V12H124.094Z" fill="#F8F7F5"/>
<defs>
<clipPath id="clip0_1275_1308">
<rect width="28" height="14" fill="white"/>
</clipPath>
</defs>
</svg>

<svg xmlns="http://www.w3.org/2000/svg" fill="none" viewBox="0 0 131 14"><g fill="#f8f7f5" clip-path="url(#a)"><path d="m4.5 5.91-4.13 5.4c-.48.6-.5 1.46-.02 2.05.74.9 2.1.82 2.75-.03l2.3-3a1.3 1.3 0 0 0 0-1.63l-.78-1.03a1.6 1.6 0 0 1-.12-1.75zm15.2 0-4.12 5.4c-.48.6-.5 1.46-.02 2.05.74.9 2.1.82 2.75-.03l2.3-3a1.3 1.3 0 0 0 0-1.63l-.78-1.03a1.6 1.6 0 0 1-.12-1.75zm.57-3.13-7.7 10.52c-.35.47-.9.72-1.44.7-.54 0-1.08-.24-1.42-.7L6.85 9.38 5.43 7.45a1.75 1.75 0 0 1 .37-2.42 1.7 1.7 0 0 1 2.39.36l2.94 4.01L17.49.7A1.7 1.7 0 0 1 19.9.34c.77.57.94 1.67.37 2.44m7.04 10.88c-.76.56-1.84.4-2.4-.36l-2.86-3.92-1.42-1.93A1.75 1.75 0 0 1 21 5.03a1.7 1.7 0 0 1 2.4.36l4.28 5.86c.56.76.4 1.85-.36 2.41"/></g><path fill="#f8f7f5" d="M37.64 6.7c-.08-.69-.71-1.09-1.56-1.09-.94 0-1.56.5-1.56 1.17 0 .74.83 1.01 1.37 1.15l.7.2c.77.19 2 .63 2 1.95 0 1.15-.92 2.05-2.56 2.05-1.53 0-2.47-.8-2.55-1.97h.9c.08.8.8 1.17 1.65 1.17.97 0 1.7-.5 1.7-1.27 0-.69-.65-.95-1.39-1.17l-.87-.23c-1.11-.32-1.8-.89-1.8-1.85 0-1.19 1.07-1.98 2.44-1.98s2.35.8 2.39 1.88zm4.72 5.3V4.93h4.28v.78h-3.4v2.36h3.18v.78h-3.19v2.37h3.46V12zM56.5 8.46c0 2.24-1.32 3.64-3.13 3.64-1.82 0-3.12-1.4-3.12-3.64 0-2.23 1.3-3.63 3.12-3.63 1.8 0 3.13 1.4 3.13 3.63m-.85 0c0-1.82-1-2.8-2.28-2.8s-2.27.98-2.27 2.8c0 1.83 1 2.82 2.27 2.82 1.28 0 2.28-.99 2.28-2.82m8.5-1.75c-.09-.7-.72-1.1-1.57-1.1-.94 0-1.55.5-1.55 1.17 0 .74.83 1.01 1.36 1.15l.7.2c.77.19 2 .63 2 1.95 0 1.15-.92 2.05-2.56 2.05-1.52 0-2.47-.8-2.55-1.97h.9c.08.8.81 1.17 1.65 1.17.98 0 1.71-.5 1.71-1.27 0-.69-.65-.95-1.4-1.17l-.87-.23c-1.1-.32-1.8-.89-1.8-1.85 0-1.19 1.07-1.98 2.44-1.98s2.35.8 2.4 1.88zM69.16 12h-.92l2.6-7.07h.92l2.6 7.07h-.93l-.7-2h-2.85zm.98-2.76h2.3l-1.12-3.17h-.06zm13.28-4.31V12h-.84l-3.83-5.5h-.07V12h-.88V4.93h.85l3.83 5.52h.07V4.93zm8.89 2.23c-.2-.98-1.05-1.5-1.98-1.5-1.28 0-2.27.98-2.27 2.8 0 1.83 1 2.82 2.27 2.82.93 0 1.76-.53 1.98-1.5h.88a2.8 2.8 0 0 1-2.86 2.32c-1.81 0-3.12-1.4-3.12-3.64 0-2.23 1.3-3.63 3.12-3.63 1.43 0 2.6.86 2.86 2.33zm4.6 4.84V4.93h.88v3.14h3.75V4.93h.88V12h-.89V8.85H97.8V12zm9.57 0V4.93h4.28v.78h-3.4v2.36h3.18v.78h-3.19v2.37h3.46V12zm13-4.84c-.21-.98-1.05-1.5-1.98-1.5-1.28 0-2.27.98-2.27 2.8 0 1.83 1 2.82 2.27 2.82.93 0 1.76-.53 1.97-1.5h.88c-.25 1.45-1.41 2.32-2.85 2.32-1.82 0-3.12-1.4-3.12-3.64 0-2.23 1.3-3.63 3.12-3.63 1.43 0 2.59.86 2.85 2.33zm4.6 4.84V4.93h.88v3.5h.1l3.14-3.5h1.15l-2.96 3.2 2.96 3.87h-1.08l-2.43-3.27-.88 1V12z"/><defs><clipPath id="a"><path fill="#fff" d="M0 0h28v14H0z"/></clipPath></defs></svg>
